docs/icons/gitlab.svg

<svg xmlns="http://www.w3.org/2000/svg" width="60" height="56" viewBox="0 0 60 56" fill="none">
<path d="M44.3296 24.4145L46.2198 30.2298C46.3914 30.7578 46.206 31.3407 45.753 31.6698L29.3754 43.5555L44.3296 24.4145Z" fill="#FCA326"/>
<path d="M14.4302 24.4145L12.5332 30.2298C12.3616 30.7578 12.547 31.3407 13 31.6698L29.3754 43.5554L14.4302 24.4145Z" fill="#FCA326"/>
<path d="M29.3754 43.5555L35.6046 24.4145H44.3296L29.3754 43.5555Z" fill="#FC6D26"/>
<path d="M29.3754 43.5555L14.4302 24.4145H23.1552L29.3754 43.5555Z" fill="#FC6D26"/>
<path d="M44.3297 24.4145H35.6046L39.3527 12.8868C39.5449 12.297 40.3825 12.297 40.5816 12.8868L44.3297 24.4145Z" fill="#E24329"/>
<path d="M14.4302 24.4145H23.1552L19.4002 12.8868C19.208 12.297 18.3705 12.297 18.1714 12.8868L14.4302 24.4145Z" fill="#E24329"/>
<path d="M29.3754 43.5555L35.6046 24.4145H23.1552L29.3754 43.5555Z" fill="#E24329"/>
<defs>
<clipPath id="clip0_2_8">
<rect width="16.7866" height="16.7521" fill="white" transform="translate(52.518 19.6239)"/>
</clipPath>
</defs>
</svg>

<svg xmlns="http://www.w3.org/2000/svg" width="60" height="56" fill="none" xmlns:v="https://vecta.io/nano"><g fill="#fca326"><path d="M44.33 24.415l1.89 5.815a1.29 1.29 0 0 1-.467 1.44L29.375 43.556 44.33 24.415z"/><path d="M14.43 24.415l-1.897 5.815A1.29 1.29 0 0 0 13 31.67l16.375 11.886L14.43 24.415z"/></g><g fill="#fc6d26"><path d="M29.375 43.556l6.229-19.141h8.725L29.375 43.556z"/><path d="M29.375 43.556L14.43 24.415h8.725l6.22 19.141z"/></g><g fill="#e24329"><path d="M44.33 24.415h-8.725l3.748-11.528a.65.65 0 0 1 1.229 0l3.748 11.528zm-29.9 0h8.725L19.4 12.887a.65.65 0 0 0-1.229 0L14.43 24.415z"/><path d="M29.375 43.556l6.229-19.141H23.155l6.22 19.141z"/></g></svg>
